X: 26
T: The Guizer's
T: March, D
C: G. Stove
L: 1/16
M: C
K: D
|: A,2| D3E1 F2A2 d4A2d2| c3d1 e1d1c1B1 A2D2 F2A2| [1 G2E2 A3G1 F2A2 F2D2| E1F1G1A1 B1A1G1F1 E2A,2 C2:|
[2 G2B2 E3G1 F2A2 d2f2| e1d1c1B1 A1G1F1E1 F2D2 D2|] |: f1g1| a3f1 d2A2 G4B1d3| c3d1 e1d1c1B1 A2d2 f2a2|
[1 b2g2 g2b2 a2f2 f2a2| g1a1b1a1 g1f1e1d1 c2A2 A2:| [2 b2g2 g2b2 a2f2 f2a2| g1f1e1d1 c1B1A1G1 F2D2 D2:| 
D: Buddy MacMaster, Glencoe Hall, BM-91
